X: 38026
T: Speybay Switch, The
R: reel
M: 4/4
K: Dmajor
|:~e2 de cAAB|cAdA eAfA|~g2 fg ed ~d2|Bcde fe ~e2|
~e2 de cA ~AB|cAdA eAfA|~g2 fg ed ~d2|cAed cA Ad:|
|:~f3 a feed|~f3 a feed|~e2 de cAAB|cAed cAAe|
~f3 a feed|~f3e edcd|e2 de cAAB|cAed cAAe:|

